X: 3765
T: Birmingham, The
R: reel
M: 4/4
K: Gmajor
|:g2gf gdBd|gdBd ea~a2|1 g2gf gd (3Bcd|eBAd Bgg2:|2 g2gf gG (3Bcd|eAAd BGGD||
|:GdBd ~G3D|GdBd eA~A2|Gd (3Bcd g2ge|fdcA AGGD:|
|:G2DG BGdG|~G2dG FDFA|1 ~G2dG (3Bcd eg|fdcA AGGD:|2 ~G3d BG (3Bcd|gdcA BGBd||

